src/rounded/icons/fi-rr-pharmacy.svg

<svg id="Layer_1" height="512" viewBox="0 0 24 24" width="512" xmlns="http://www.w3.org/2000/svg" data-name="Layer 1"><path d="m12 24a4 4 0 0 1 -4-4v-4h-4a4 4 0 0 1 0-8h4v-4a4 4 0 0 1 8 0v4h4a4 4 0 0 1 0 8h-4v4a4 4 0 0 1 -4 4zm-8-14a2 2 0 0 0 0 4h5a1 1 0 0 1 1 1v5a2 2 0 0 0 4 0v-5a1 1 0 0 1 1-1h5a2 2 0 0 0 0-4h-5a1 1 0 0 1 -1-1v-5a2 2 0 0 0 -4 0v5a1 1 0 0 1 -1 1z"/></svg>

<svg id="Layer_1" data-name="Layer 1" xmlns="http://www.w3.org/2000/svg" viewBox="0 0 24 24"><path d="M12,24a4,4,0,0,1-4-4V16H4A4,4,0,0,1,4,8H8V4a4,4,0,0,1,8,0V8h4a4,4,0,0,1,0,8H16v4A4,4,0,0,1,12,24ZM4,10a2,2,0,0,0,0,4H9a1,1,0,0,1,1,1v5a2,2,0,0,0,4,0V15a1,1,0,0,1,1-1h5a2,2,0,0,0,0-4H15a1,1,0,0,1-1-1V4a2,2,0,0,0-4,0V9a1,1,0,0,1-1,1Z"/></svg>
